X: 33395
T: Quick, The
R: reel
M: 4/4
K: Gmajor
Bc|d2 de dcAG|d2 G2 G2 AG|FGAB cBAG|BABG F2GA|
B2 B>G/ c2 c>A/|d2 g2 g2 fg|agfe dcAc|d2 G2 G2||
dc|d2 g2 g2 fg|agfe d2 cd|d2 g2 g2 fg|agfe d2fg|
abab gbag|edcd f2 g2|agfe dcAc|d2 g2 g2||

